X:1
T:Albion
T:Transcribed from Kentucky Harmony, 1817.
T:G Major                     Robert Boyd, 1816
T:Isaac Watts, 1709 (Hymn 30, Book 2)             66. 86. (S. M.)
%%score [ 1 2 3 4 ]
L:1/8
Q:1/4=150
M:4/4
K:G
V:1 treble nm="Tr." snm="Tr."
V:2 treble nm="C." snm="C."
V:3 treble-8 nm="T." snm="T."
V:4 bass nm="B." snm="B."
V:1
 G4 | B2 B2 d2 B2 | A4 d4 | B2 B2 e2 d2 | B8 | z4 B4 | d2 d2 B2 A2 | (G3 A B2) d2 | d4 d4 | %9
w: 1. Come,|ye that love the|Lord, And|let your joys be|known;|Join|in a song with|sweet * * ac-|cord And|
w: 2. The|sor- rows of the|mind Be|ba- nished from the|place;|Re-|li- gion ne- ver|was * * de-|signed To|
w: 3. Let|those re- fuse to|sing That|ne- ver knew our|God;|But|fa- vorites of the|hea- * * venly|King May|
 B2 d2 c2 B2 | A4 B4 | d2 B2 e2 d2 | d8 |] %13
w: this sur- round the|throne, And|thus sur- round the|throne.|
w: make our plea- sures|less, To|make our plea- sures|less.|
w: speak their joys a-|broad, May|speak their joys a-|broad.|
V:2
 G4 | D2 D2 G2 B2 | A4 A4 | B2 G2 AG FE | D8 | z4 G4 | G2 G2 B2 A2 | (G3 F E2) D2 | D4 G4 | %9
w: 4. The|God that rules on|high, And|thun- ders when * he *|please.|That|rides up- on the|stor- * * my|sky, And|
w: 5. This|awe- ful God is|ours, Our|Fa- ther and * our *|love,|He|shall send down his|hea- * * venly|powers To|
w: 6. There|we shall see his|face, And|ne- ver, ne- * ver *|sin;|There,|from the ri- vers|of * * his|grace, Drink|
w: 7. Yes,|and be- fore we|rise To|that im- mor- * tal *|state,|The|thoughts of such a-|ma- * * zing|bless Should|
 G2 B2 BA G2 | A4 G4 | B2 G2 G2 F2 | G8 |] %13
w: ma- na- ges * the|seas, And|ma- na- ges the|seas.|
w: car- ry us * a-|bove, To|car- ry us a-|bove.|
w: end- less plea- * sures|in, Drink|end- less plea- sures|in.|
w: con- stant joys * cre-|ate, Should|con- stant joys cre-|ate.|
V:3
 G4 | B2 d2 B2 G2 | A4 A4 | B2 d2 cB A2 | G8 | z4 G4 | B2 B2 d2 d2 | (B3 A G2) B2 | A4 B4 | %9
w: 8. The|men of grace have|found Glo-|ry be- gun * be-|low;|Ce-|les- tial fruits on|earth- * * ly|ground From|
w: 9. The|hill of Zi- on|yields A|thou- sand sa- * cred|sweets,|Be-|fore we reach the|hea- * * venly|fields Or|
w: 10. Then|let our songs a-|bound, And|eve- ry tear * be|dry;|We're|mar- chin through Im-|man- * * uel's|ground To|
 G2 D2 GA Bc | d4 d4 | B2 d2 cB A2 | G8 |] %13
w: faith and hope * may *|grow, From|faith and hope * may|grow.|
w: walk the gol- * den *|streets, Or|walk the gol- * den|streets.|
w: fair- er worlds * on *|high, To|fair- er worlds * on|high.|
V:4
 G,4 | G,2 G,2 G,2 E,2 | D,4 D,4 | G,2 G,2 C,2 D,2 | G,,8 | z4 G,4 | G,2 G,2 D,2 D,2 | %7
"_____________________________________________________________________________________________________________\nThis tune was first published in \nKentucky Harmony\n in 1816. It was reprinted (sometimes slightly revised) in many music books\n   following that, including a three-part version in\n Southern Harmony\n (1835), p. 23.  It appeared in \nThe Sacred Harp\n, p. 52 from 1844 \n   to the present, in a four-part version.\nThe words to the first stanza have been modified; the original reads \"Come, we that love the Lord, and let our joys be known,…\"" G,6 G,2 | %8
 D,4 G,4 | B,2 A,2 G,F, E,2 | D,4 G,4 | G,2 G,2 C,2 D,2 | G,,8 |] %13

